X: 41940
T: Walking In The Parlor
R: reel
M: 4/4
K: Dmajor
|:f2a2 e3e|f2a2 e2de|f2a2 abag|fdec d4:|
|:fdfd A2d2|fdfd e2d2|fdfd A2d2|fdec d4:|

